X: 0
T:Cornish Wassail
M:3/4
L:1/8
Q:1/4=120
K:D
D6|D2D2F2|A2A2A2|B2A2G2|A4A2|B2c2d2|A2F2A2|
G2F2E2|D4D2|D2F2A2|d4d2|B4B2|A4A2|B2c2d2|
A2F2A2|G2F2E2|D4||
Play Midi Sound click here
To the lyrics click here
-----------------------------------------------------------------------------
